X: 622
T:[Unknown]
R:Reel
C:??
M:C
L:1/8
N:Posted to the woodenflute mailing list January 2003
Z:Julien Coupey
K:G
d~G3 F~A3|d~g3 fgag|d~g3 abag|e~f3 e~f2e|d~G3 F~A3|
d~g3 fgag|d~g3 gedg|1 edBA GABc:|2 edBA GABd||
~e3g edBA|~G3B dGBd|e~a3 bagb|agea gedg|~e3g edBA|
~G3B dGBd|e~a2f gedg|1 edBA GABd:|2 edBA GABc||

